packages/kaspersky-hexa-ui-icons/src/iconsSVGs/16/Cursor.svg

<svg width="16" height="16" viewBox="0 0 16 16" fill="none" xmlns="http://www.w3.org/2000/svg">
<path fill-rule="evenodd" clip-rule="evenodd" d="M2.21768 2.45743C2.03299 1.53494 3.0034 0.812458 3.83419 1.25393L14.2135 6.76946C15.0807 7.23025 14.9718 8.50584 14.0392 8.81308L9.35466 10.3563L6.56632 14.3537C6.54408 14.3856 6.52222 14.4177 6.49846 14.4485C5.92151 15.1962 4.71409 14.9261 4.52517 13.9825L2.21768 2.45743ZM3.56906 2.5852L5.71475 13.3022L8.41238 9.43481C8.49284 9.31946 8.60855 9.23332 8.74213 9.18932L13.2207 7.714L3.56906 2.5852Z" fill="black"/>
</svg>

<svg xmlns="http://www.w3.org/2000/svg" width="16" height="16" fill="none" viewBox="0 0 16 16"><path d="M0 16h16V0H0z"/><path fill="#000" fill-rule="evenodd" d="M2.2176 2.4573c-.1847-.9225.7857-1.645 1.6165-1.2035l10.3793 5.5155c.8671.4608.7583 1.7364-.1743 2.0437l-4.6846 1.543-2.7883 3.9974c-.0222.0319-.0441.0641-.0679.0949-.577.7476-1.7843.4776-1.9733-.466zm1.3513.1278 2.1457 10.717 2.6977-3.8674a.65.65 0 0 1 .3297-.2455l4.4785-1.4753z"/></svg>
